X: 3
T:Old Black Joe, Badby 1
M:6/8
L:1/8
A:Badby
P:A(A2B2)4A2
K:Bb
P:A
F|F2B BAB|c2d edc|fdB FBe|dec B2 ||
P:B
A|BAB c2f|c2f cAF|BAB d2c|BAG F2E|
DFF B2B|c2d edc|fdB FBe|dec B2 ||
